X: 8
T: Snug In The Blanket
R: jig
M: 6/8
L: 1/8
K: Dmix
A2B cBc|~E3 c2A|B2G AFD|~G3 BAG|
A2B cBc|~E3 c2A|BdB cAF|~G2A BAG:|
FGA AFd|AFd AFD|FGA AFD|~G3 BAG|
FGA AFd|AFd ABc|BdB cAF|~G3 BAG:|
FGA AFA|~D3 AFD|FGA AFD|~G3 BAG|
FGA AFA|~D3 ABc|BdB cAF|~G3 BAG:|


Tune 1747	Setting 15181

